X:1
T:The Ghost of Tom
M:4/4
L:1/4
K:G
 E D E B,| C D E2| G F G B/2A/2| G FE/2-F/2-G/2-A/2| B3/2- A/2- B-e/2-d/2|\
 B- A B2| B/2B/2 A/2A/2 G/2G/2 F| E D E2|
